;FLAVOR:Marlin
;TIME:7102
;Filament used: 13.9489m
;Layer height: 0.2
;Generated with Cura_SteamEngine 4.0.0
M104 S215
M105
M109 S215
M82 ;absolute extrusion mode
M851 Z-1.3; -1.1 with paper and glue
M203 Y97.5
M92 Y50
G28 ; home all axes
G29; BLTOUCH mesh generation
G21
G92
G0 F4000 X50 Y 50
G1 Z5;
G1 X45 Y45 Z0 F4000; change x and y if need be
G1 X60.0 E9.0  F1000.0 ; intro line
G1 X100.0 E14  F1000.0 ; intro line
G92 E0.0
G92 E0
G1 F1800 E-2
;LAYER_COUNT:63
;LAYER:0
M107
M204 S5000
M205 X30 Y30
G0 F3600 X20.741 Y24.98 Z0.3
M204 S3000
M205 X15 Y15
;TYPE:SKIRT
G1 F1800 E0
G1 F3000 X21.19 Y24.687 E0.02675
G1 X21.677 Y24.464 E0.05347
G1 X22.193 Y24.316 E0.08025
G1 X22.65 Y24.251 E0.10328
G1 X25.336 Y24.044 E0.23768
G1 X25.608 Y24.033 E0.25127
G1 X29.925 Y24.027 E0.46664
G1 X37.395 Y23.846 E0.83943
G1 X38.176 Y23.913 E0.87854
G1 X40.842 Y24.437 E1.01409
G1 X46.284 Y25.27 E1.28875
G1 X51.726 Y25.79 E1.56149
G1 X55.35 Y25.966 E1.74251
G1 X84.238 Y26.773 E3.1843
G1 X102.166 Y26.786 E4.07873
G1 X102.7 Y26.826 E4.10545
G1 X103.223 Y26.946 E4.13222
G1 X103.533 Y27.057 E4.14865
G1 X110.222 Y29.81 E4.50952
G1 X111.997 Y30.446 E4.60359
G1 X112.487 Y30.664 E4.63034
G1 X113.122 Y31.1 E4.66877
G1 X113.212 Y31.177 E4.67468
G1 X113.519 Y31.472 E4.69592
G1 X113.673 Y31.639 E4.70726
G1 X114.006 Y32.059 E4.734
G1 X114.273 Y32.524 E4.76075
G1 X114.468 Y33.023 E4.78748
G1 X114.593 Y33.594 E4.81664
G1 X114.89 Y35.777 E4.92655
G1 X114.919 Y36.423 E4.95882
G1 X114.758 Y40.027 E5.1388
G1 X114.758 Y45.533 E5.41349
G1 X114.917 Y48.982 E5.58575
G1 X114.893 Y49.595 E5.61635
G1 X114.254 Y54.699 E5.87298
G1 X113.857 Y60.126 E6.14446
G1 X113.766 Y65.604 E6.4178
G1 X113.983 Y71.039 E6.68917
G1 X114.466 Y76.133 E6.94445
G1 X114.892 Y79.382 E7.10793
G1 X114.919 Y80.011 E7.13934
G1 X114.758 Y83.615 E7.31932
G1 X114.758 Y89.121 E7.59402
G1 X114.917 Y92.568 E7.76617
G1 X114.888 Y93.222 E7.79883
G1 X114.599 Y95.335 E7.90523
G1 X114.487 Y95.859 E7.93196
G1 X114.299 Y96.359 E7.95861
G1 X112.107 Y101.095 E8.21897
G1 X110.061 Y106.158 E8.49141
G1 X108.309 Y111.327 E8.76371
G1 X106.847 Y116.602 E9.0368
G1 X105.892 Y120.818 E9.25246
G1 X105.735 Y121.331 E9.27923
G1 X105.504 Y121.815 E9.30598
G1 X105.203 Y122.259 E9.33275
G1 X105.026 Y122.465 E9.3463
G1 X104.954 Y122.543 E9.35159
G1 X104.821 Y122.679 E9.36108
G1 X104.665 Y122.831 E9.37195
G1 X104.254 Y123.176 E9.39872
G1 X103.797 Y123.456 E9.42546
G1 X103.303 Y123.664 E9.4522
G1 X102.783 Y123.797 E9.47898
G1 X102.153 Y123.853 E9.51053
G1 X26.069 Y123.863 E13.30638
G1 X25.829 Y123.855 E13.31836
G1 X22.684 Y123.645 E13.47561
G1 X22.153 Y123.57 E13.50237
G1 X21.639 Y123.416 E13.52914
G1 X21.154 Y123.188 E13.55588
G1 X20.708 Y122.89 E13.58264
G1 X20.311 Y122.529 E13.60941
G1 X19.972 Y122.114 E13.63614
G1 X19.64 Y121.528 E13.66974
G1 X17.07 Y115.806 E13.98269
G1 X15.846 Y113.38 E14.11825
G1 X14.579 Y111.042 E14.25092
G1 X10.647 Y104.581 E14.62826
G1 X10.403 Y104.103 E14.65504
G1 X10.233 Y103.594 E14.68181
G1 X10.14 Y103.066 E14.70856
G1 X10.122 Y102.743 E14.7247
G1 X10.081 Y98.361 E14.94333
G1 X10.088 Y98.11 E14.95585
G1 X10.318 Y94.295 E15.14653
G1 X10.406 Y90.178 E15.35197
G1 X10.366 Y79.775 E15.87099
G1 X10.079 Y74.445 E16.13729
G1 X10.074 Y74.21 E16.14901
G1 X10.122 Y69.949 E16.36161
G1 X10.168 Y69.415 E16.38835
G1 X10.293 Y68.894 E16.41508
G1 X10.434 Y68.525 E16.43479
G1 X11.321 Y66.533 E16.54358
G1 X13.394 Y61.368 E16.82124
G1 X14.261 Y58.9 E16.95174
G1 X15.867 Y53.646 E17.22584
G1 X17.17 Y48.324 E17.4992
G1 X17.708 Y45.638 E17.63586
G1 X18.154 Y43.017 E17.76851
G1 X18.848 Y37.577 E18.04211
G1 X19.232 Y32.125 E18.31478
G1 X19.295 Y29.168 E18.46234
G1 X19.295 Y29.16 E18.46274
G1 X19.328 Y27.755 E18.53286
G1 X19.38 Y27.222 E18.55957
G1 X19.512 Y26.702 E18.58634
G1 X19.719 Y26.207 E18.61311
G1 X19.997 Y25.749 E18.63984
G1 X20.34 Y25.336 E18.66662
G1 X20.741 Y24.98 E18.69337
M204 S5000
M205 X30 Y30
G0 F3600 X21.124 Y25.196
M204 S3000
M205 X15 Y15
G1 F3000 X21.563 Y24.945 E18.7186
G1 X22.036 Y24.766 E18.74383
G1 X22.681 Y24.649 E18.77654
G1 X25.367 Y24.442 E18.91094
G1 X25.609 Y24.433 E18.92302
G1 X29.934 Y24.427 E19.1388
G1 X37.404 Y24.246 E19.51159
G1 X38.099 Y24.305 E19.54639
G1 X40.8 Y24.836 E19.68372
G1 X46.237 Y25.668 E19.95813
G1 X51.69 Y26.189 E20.23142
G1 X55.322 Y26.365 E20.41283
G1 X84.226 Y27.173 E21.85542
G1 X102.165 Y27.186 E22.7504
G1 X102.669 Y27.226 E22.77563
G1 X103.381 Y27.427 E22.81254
G1 X110.088 Y30.187 E23.17438
G1 X111.862 Y30.823 E23.2684
G1 X112.323 Y31.031 E23.29363
G1 X112.862 Y31.403 E23.3263
G1 X112.952 Y31.48 E23.33221
G1 X113.224 Y31.743 E23.35109
G1 X113.378 Y31.91 E23.36242
G1 X113.691 Y32.307 E23.38764
G1 X113.937 Y32.749 E23.41288
G1 X114.11 Y33.224 E23.4381
G1 X114.197 Y33.648 E23.45969
G1 X114.494 Y35.831 E23.56961
G1 X114.52 Y36.405 E23.59827
G1 X114.358 Y40.032 E23.77941
G1 X114.358 Y45.53 E24.0537
G1 X114.518 Y49.001 E24.22706
G1 X114.496 Y49.546 E24.25427
G1 X113.856 Y54.66 E24.5114
G1 X113.457 Y60.108 E24.78393
G1 X113.365 Y65.613 E25.05861
G1 X113.583 Y71.057 E25.33043
G1 X114.068 Y76.166 E25.58647
G1 X114.496 Y79.434 E25.7509
G1 X114.52 Y79.993 E25.77881
G1 X114.358 Y83.62 E25.95995
G1 X114.358 Y89.118 E26.23424
G1 X114.518 Y92.587 E26.40749
G1 X114.491 Y93.168 E26.43651
G1 X114.202 Y95.281 E26.54291
G1 X114.095 Y95.775 E26.56813
G1 X113.936 Y96.191 E26.59035
G1 X111.739 Y100.939 E26.85136
G1 X109.691 Y106.006 E27.12402
G1 X107.926 Y111.213 E27.39831
G1 X106.458 Y116.508 E27.67245
G1 X105.502 Y120.73 E27.88842
G1 X105.352 Y121.212 E27.9136
G1 X105.127 Y121.666 E27.93888
G1 X104.732 Y122.193 E27.97174
G1 X104.66 Y122.271 E27.97703
G1 X104.542 Y122.393 E27.9855
G1 X104.386 Y122.545 E27.99637
G1 X103.997 Y122.868 E28.02159
G1 X103.562 Y123.126 E28.04683
G1 X103.092 Y123.312 E28.07204
G1 X102.599 Y123.422 E28.09724
G1 X102.153 Y123.453 E28.11955
G1 X26.069 Y123.463 E31.9154
G1 X25.856 Y123.456 E31.92603
G1 X22.711 Y123.246 E32.08328
G1 X22.211 Y123.172 E32.1085
G1 X21.728 Y123.021 E32.13375
G1 X21.276 Y122.796 E32.15894
G1 X20.864 Y122.502 E32.18419
G1 X20.504 Y122.147 E32.20941
G1 X20.205 Y121.74 E32.23461
G1 X20.005 Y121.364 E32.25585
G1 X17.43 Y115.632 E32.56936
G1 X16.211 Y113.215 E32.70441
G1 X14.927 Y110.846 E32.83884
G1 X10.988 Y104.373 E33.21687
G1 X10.761 Y103.921 E33.24211
G1 X10.607 Y103.44 E33.26731
G1 X10.522 Y102.739 E33.30254
G1 X10.481 Y98.357 E33.52116
G1 X10.487 Y98.134 E33.53229
G1 X10.718 Y94.302 E33.72382
G1 X10.806 Y90.184 E33.92931
G1 X10.766 Y79.751 E34.44982
G1 X10.479 Y74.423 E34.71602
G1 X10.474 Y74.215 E34.7264
G1 X10.522 Y69.954 E34.939
G1 X10.568 Y69.45 E34.96425
G1 X10.692 Y68.96 E34.98947
G1 X10.799 Y68.688 E35.00405
G1 X11.69 Y66.688 E35.11328
G1 X13.765 Y61.517 E35.39126
G1 X14.649 Y59.001 E35.52431
G1 X16.253 Y53.753 E35.79809
G1 X17.557 Y48.424 E36.07179
G1 X18.1 Y45.718 E36.20949
G1 X18.552 Y43.062 E36.3439
G1 X19.246 Y37.621 E36.61755
G1 X19.632 Y32.14 E36.89168
G1 X19.695 Y29.177 E37.03954
G1 X19.695 Y29.17 E37.03989
G1 X19.728 Y27.765 E37.11
G1 X19.78 Y27.262 E37.13523
G1 X19.91 Y26.773 E37.16047
G1 X20.116 Y26.312 E37.18567
G1 X20.391 Y25.888 E37.21088
G1 X20.73 Y25.513 E37.2361
G1 X21.124 Y25.196 E37.26133
M204 S5000
M205 X30 Y30
G1 F1800 E35.26133
G0 F3600 X25.806 Y26.966
G0 X25.807 Y27.831
M204 S3000
M205 X15 Y15
;TYPE:SUPPORT
G1 F1800 E37.26133
G1 F3000 X31.506 Y27.826 E37.54565
G1 X37.458 Y27.636 E37.84275
G1 X38.889 Y28.117 E37.91807
G1 X39.304 Y28.241 E37.93968
G1 X40.705 Y28.711 E38.0134
G1 X40.954 Y28.785 E38.02636
G1 X42.78 Y29.397 E38.12244
G1 X82.681 Y30.573 E40.11397
G1 X102.075 Y30.573 E41.08155
G1 X102.191 Y30.689 E41.08973
G1 X102.191 Y33.632 E41.23656
G1 X102.59 Y34.031 E41.26471
G1 X110.718 Y34.031 E41.67022
G1 X110.834 Y34.147 E41.6784
G1 X110.831 Y35.947 E41.7682
G1 X111.041 Y36.261 E41.78705
G1 X110.817 Y36.484 E41.80282
G1 X110.816 Y48.665 E42.41053
G1 X110.998 Y49.106 E42.43433
G1 X111.041 Y49.148 E42.43733
G1 X110.834 Y49.471 E42.45647
G1 X110.831 Y51.262 E42.54582
G1 X110.69 Y51.403 E42.55577
G1 X102.59 Y51.403 E42.95988
G1 X102.191 Y51.802 E42.98803
G1 X102.191 Y77.218 E44.25604
G1 X102.59 Y77.617 E44.2842
G1 X110.718 Y77.617 E44.6897
G1 X110.834 Y77.733 E44.69789
G1 X110.831 Y79.535 E44.78779
G1 X111.041 Y79.849 E44.80664
G1 X110.817 Y80.072 E44.82241
G1 X110.816 Y92.251 E45.43002
G1 X110.998 Y92.692 E45.45382
G1 X111.041 Y92.734 E45.45682
G1 X110.834 Y93.057 E45.47596
G1 X110.831 Y94.848 E45.56531
G1 X110.69 Y94.989 E45.57526
G1 X102.59 Y94.989 E45.97937
G1 X102.191 Y95.388 E46.00752
G1 X102.191 Y119.947 E47.23278
G1 X102.075 Y120.063 E47.24096
G1 X25.807 Y120.063 E51.04599
G1 X25.841 Y120.029 E51.04838
G1 X25.841 Y27.865 E55.64647
G1 X25.807 Y27.831 E55.64886
M204 S5000
M205 X30 Y30
G1 F1800 E53.64886
G0 F3600 X25.806 Y26.966
G0 X26.097 Y27.004
G0 X26.141 Y27.009
G0 X102.975 Y37.252
G0 X103.019 Y37.257
G0 X103.044 Y37.262
G0 X102.191 Y36.808
M204 S3000
M205 X15 Y15
G1 F1800 E55.64886
G1 F3000 X102.191 Y48.626 E56.23847
G1 X102.59 Y49.025 E56.26662
G1 X107.052 Y49.025 E56.48923
G1 X107.451 Y48.626 E56.51738
G1 X107.453 Y37.067 E57.09406
G1 X107.27 Y36.625 E57.11793
G1 X107.054 Y36.409 E57.13317
G1 X102.59 Y36.409 E57.35588
G1 X102.191 Y36.808 E57.38403
M204 S5000
M205 X30 Y30
G1 F1800 E55.38403
G0 F3600 X103.044 Y37.262
G0 X103.044 Y48.196
G0 X103.044 Y48.24
G0 X103.044 Y52.188
G0 X103.044 Y52.256
G0 X103.044 Y76.764
G0 X103.044 Y76.832
G0 X103.044 Y80.782
G0 X103.044 Y80.826
G0 X103.044 Y80.85
G0 X102.191 Y80.396
M204 S3000
M205 X15 Y15
G1 F1800 E57.38403
G1 F3000 X102.191 Y92.212 E57.97353
G1 X102.59 Y92.611 E58.00168
G1 X107.052 Y92.611 E58.22429
G1 X107.451 Y92.212 E58.25245
G1 X107.453 Y80.655 E58.82903
G1 X107.27 Y80.213 E58.85289
G1 X107.054 Y79.997 E58.86813
G1 X102.59 Y79.997 E59.09084
G1 X102.191 Y80.396 E59.11899
M204 S5000
M205 X30 Y30
G0 F3600 X102.35 Y80.01
M204 S3000
M205 X15 Y15
G1 F3000 X26 Y80.01 E62.92811
M204 S5000
M205 X30 Y30
G0 F3600 X26 Y77.343
M204 S3000
M205 X15 Y15
G1 F3000 X102.089 Y77.343 E66.72421
M204 S5000
M205 X30 Y30
G0 F3600 X104.013 Y77.777
M204 S3000
M205 X15 Y15
G1 F3000 X104.013 Y79.837 E66.82698
M204 S5000
M205 X30 Y30
G0 F3600 X106.68 Y79.837
M204 S3000
M205 X15 Y15
G1 F3000 X106.68 Y77.777 E66.92975
M204 S5000
M205 X30 Y30
G0 F3600 X107.294 Y80.01
M204 S3000
M205 X15 Y15
G1 F3000 X110.656 Y80.01 E67.09749
M204 S5000
M205 X30 Y30
G0 F3600 X109.347 Y77.777
M204 S3000
M205 X15 Y15
G1 F3000 X109.347 Y94.829 E67.94821
M204 S5000
M205 X30 Y30
G0 F3600 X110.673 Y93.345
M204 S3000
M205 X15 Y15
G1 F3000 X26 Y93.345 E72.17257
M204 S5000
M205 X30 Y30
G0 F3600 X26 Y90.678
M204 S3000
M205 X15 Y15
G1 F3000 X102.031 Y90.678 E75.96577
M204 S5000
M205 X30 Y30
G0 F3600 X102.031 Y88.011
M204 S3000
M205 X15 Y15
G1 F3000 X26 Y88.011 E79.75897
M204 S5000
M205 X30 Y30
G0 F3600 X26 Y85.344
M204 S3000
M205 X15 Y15
G1 F3000 X102.031 Y85.344 E83.55217
M204 S5000
M205 X30 Y30
G0 F3600 X102.031 Y82.677
M204 S3000
M205 X15 Y15
G1 F3000 X26 Y82.677 E87.34537
M204 S5000
M205 X30 Y30
G1 F1800 E85.34537
G0 F3600 X22.252 Y82.677
G0 X22.264 Y75.058
G0 X26 Y74.676
M204 S3000
M205 X15 Y15
G1 F1800 E87.34537
G1 F3000 X102.031 Y74.676 E91.13858
M204 S5000
M205 X30 Y30
G0 F3600 X102.031 Y72.009
M204 S3000
M205 X15 Y15
G1 F3000 X26 Y72.009 E94.93178
M204 S5000
M205 X30 Y30
G0 F3600 X26 Y69.342
M204 S3000
M205 X15 Y15
G1 F3000 X102.031 Y69.342 E98.72498
M204 S5000
M205 X30 Y30
G0 F3600 X102.031 Y66.675
M204 S3000
M205 X15 Y15
G1 F3000 X26 Y66.675 E102.51818
M204 S5000
M205 X30 Y30
G0 F3600 X26 Y64.008
M204 S3000
M205 X15 Y15
G1 F3000 X102.031 Y64.008 E106.31138
M204 S5000
M205 X30 Y30
G0 F3600 X102.031 Y61.341
M204 S3000
M205 X15 Y15
G1 F3000 X26 Y61.341 E110.10459
M204 S5000
M205 X30 Y30
G0 F3600 X26 Y58.674
M204 S3000
M205 X15 Y15
G1 F3000 X102.031 Y58.674 E113.89779
M204 S5000
M205 X30 Y30
G0 F3600 X102.031 Y56.007
M204 S3000
M205 X15 Y15
G1 F3000 X26 Y56.007 E117.69099
M204 S5000
M205 X30 Y30
G0 F3600 X26 Y53.34
M204 S3000
M205 X15 Y15
G1 F3000 X102.031 Y53.34 E121.48419
M204 S5000
M205 X30 Y30
G1 F1800 E119.48419
G0 F3600 X103.056 Y53.34
G0 X104.013 Y52.268
G0 X104.013 Y51.243
M204 S3000
M205 X15 Y15
G1 F1800 E121.48419
G1 F3000 X104.013 Y49.185 E121.58687
M204 S5000
M205 X30 Y30
G0 F3600 X102.031 Y48.006
M204 S3000
M205 X15 Y15
G1 F3000 X26 Y48.006 E125.38007
M204 S5000
M205 X30 Y30
G0 F3600 X26 Y45.339
M204 S3000
M205 X15 Y15
G1 F3000 X102.031 Y45.339 E129.17327
M204 S5000
M205 X30 Y30
G0 F3600 X102.031 Y42.672
M204 S3000
M205 X15 Y15
G1 F3000 X26 Y42.672 E132.96647
M204 S5000
M205 X30 Y30
G0 F3600 X26 Y40.005
M204 S3000
M205 X15 Y15
G1 F3000 X102.031 Y40.005 E136.75967
M204 S5000
M205 X30 Y30
G0 F3600 X102.031 Y37.338
M204 S3000
M205 X15 Y15
G1 F3000 X26 Y37.338 E140.55288
M204 S5000
M205 X30 Y30
G0 F3600 X26 Y34.671
M204 S3000
M205 X15 Y15
G1 F3000 X110.673 Y34.671 E144.77723
M204 S5000
M205 X30 Y30
G0 F3600 X109.347 Y34.191
M204 S3000
M205 X15 Y15
G1 F3000 X109.347 Y51.243 E145.62796
M204 S5000
M205 X30 Y30
G0 F3600 X110.671 Y50.673
M204 S3000
M205 X15 Y15
G1 F3000 X26 Y50.673 E149.85221
M204 S5000
M205 X30 Y30
G1 F1800 E147.85221
G0 F3600 X22.252 Y50.673
G0 X22.252 Y32.004
G0 X26 Y32.004
M204 S3000
M205 X15 Y15
G1 F1800 E149.85221
G1 F3000 X102.031 Y32.004 E153.64541
M204 S5000
M205 X30 Y30
G0 F3600 X101.346 Y30.733
M204 S3000
M205 X15 Y15
G1 F3000 X101.346 Y119.903 E158.09412
M204 S5000
M205 X30 Y30
G0 F3600 X102.031 Y117.348
M204 S3000
M205 X15 Y15
G1 F3000 X26 Y117.348 E161.88732
M204 S5000
M205 X30 Y30
G0 F3600 X26.67 Y119.903
M204 S3000
M205 X15 Y15
G1 F3000 X26.67 Y27.99 E166.47288
M204 S5000
M205 X30 Y30
G0 F3600 X26.001 Y29.337
M204 S3000
M205 X15 Y15
G1 F3000 X42.102 Y29.337 E167.27616
M204 S5000
M205 X30 Y30
G0 F3600 X42.672 Y29.529
M204 S3000
M205 X15 Y15
G1 F3000 X42.672 Y119.903 E171.78494
M204 S5000
M205 X30 Y30
G0 F3600 X40.005 Y119.903
M204 S3000
M205 X15 Y15
G1 F3000 X40.005 Y28.646 E176.33777
M204 S5000
M205 X30 Y30
G0 F3600 X37.338 Y27.8
M204 S3000
M205 X15 Y15
G1 F3000 X37.338 Y119.903 E180.93281
M204 S5000
M205 X30 Y30
G0 F3600 X34.671 Y119.903
M204 S3000
M205 X15 Y15
G1 F3000 X34.671 Y27.885 E185.52361
M204 S5000
M205 X30 Y30
G0 F3600 X32.004 Y27.97
M204 S3000
M205 X15 Y15
G1 F3000 X32.004 Y119.903 E190.11016
M204 S5000
M205 X30 Y30
G0 F3600 X29.337 Y119.903
M204 S3000
M205 X15 Y15
G1 F3000 X29.337 Y27.987 E194.69587
M204 S5000
M205 X30 Y30
G1 F1800 E192.69587
G0 F3600 X29.336 Y26.963
G0 X37.586 Y26.768
G0 X45.368 Y28.608
G0 X45.339 Y29.633
M204 S3000
M205 X15 Y15
G1 F1800 E194.69587
G1 F3000 X45.339 Y119.903 E199.19946
M204 S5000
M205 X30 Y30
G0 F3600 X48.006 Y119.903
M204 S3000
M205 X15 Y15
G1 F3000 X48.006 Y29.711 E203.69916
M204 S5000
M205 X30 Y30
G0 F3600 X50.673 Y29.79
M204 S3000
M205 X15 Y15
G1 F3000 X50.673 Y119.903 E208.19491
M204 S5000
M205 X30 Y30
G0 F3600 X53.34 Y119.903
M204 S3000
M205 X15 Y15
G1 F3000 X53.34 Y29.869 E212.68673
M204 S5000
M205 X30 Y30
G0 F3600 X56.007 Y29.947
M204 S3000
M205 X15 Y15
G1 F3000 X56.007 Y119.903 E217.17465
M204 S5000
M205 X30 Y30
G0 F3600 X58.674 Y119.903
M204 S3000
M205 X15 Y15
G1 F3000 X58.674 Y30.026 E221.65863
M204 S5000
M205 X30 Y30
G0 F3600 X61.341 Y30.104
M204 S3000
M205 X15 Y15
G1 F3000 X61.341 Y119.903 E226.13872
M204 S5000
M205 X30 Y30
G0 F3600 X64.008 Y119.903
M204 S3000
M205 X15 Y15
G1 F3000 X64.008 Y30.183 E230.61487
M204 S5000
M205 X30 Y30
G0 F3600 X66.675 Y30.262
M204 S3000
M205 X15 Y15
G1 F3000 X66.675 Y119.903 E235.08708
M204 S5000
M205 X30 Y30
G0 F3600 X69.342 Y119.903
M204 S3000
M205 X15 Y15
G1 F3000 X69.342 Y30.34 E239.55539
M204 S5000
M205 X30 Y30
G0 F3600 X72.009 Y30.419
M204 S3000
M205 X15 Y15
G1 F3000 X72.009 Y119.903 E244.01977
M204 S5000
M205 X30 Y30
G0 F3600 X74.676 Y119.903
M204 S3000
M205 X15 Y15
G1 F3000 X74.676 Y30.498 E248.4802
M204 S5000
M205 X30 Y30
G0 F3600 X77.343 Y30.576
M204 S3000
M205 X15 Y15
G1 F3000 X77.343 Y119.903 E252.93674
M204 S5000
M205 X30 Y30
G0 F3600 X80.01 Y119.903
M204 S3000
M205 X15 Y15
G1 F3000 X80.01 Y30.655 E257.38934
M204 S5000
M205 X30 Y30
G0 F3600 X82.677 Y30.733
M204 S3000
M205 X15 Y15
G1 F3000 X82.677 Y119.903 E261.83805
M204 S5000
M205 X30 Y30
